favicon.svg

<?xml version="1.0" encoding="UTF-8" standalone="no"?>

<svg
   viewBox="0 0 200 200"
   version="1.1"
   id="svg5"
   xmlns:xlink="http://www.w3.org/1999/xlink"
   xmlns="http://www.w3.org/2000/svg"
   xmlns:svg="http://www.w3.org/2000/svg">
  <defs>
    <linearGradient
       id="linearGradient5688">
      <stop
         style="stop-color:#ff4000;stop-opacity:1"
         offset="0"
         id="stop5684" />
      <stop
         style="stop-color:#ff0000;stop-opacity:1"
         offset="1"
         id="stop5686" />
    </linearGradient>
    <linearGradient
       id="linearGradient5566">
      <stop
         style="stop-color:#e04000;stop-opacity:1"
         offset="0"
         id="stop5562" />
      <stop
         style="stop-color:#e00000;stop-opacity:1"
         offset="1"
         id="stop5564" />
    </linearGradient>
    <linearGradient
       id="linearGradient5406">
      <stop
         style="stop-color:#c04000;stop-opacity:1"
         offset="0"
         id="stop5402" />
      <stop
         style="stop-color:#c00000;stop-opacity:1"
         offset="1"
         id="stop5404" />
    </linearGradient>
    <linearGradient
       id="linearGradient5341">
      <stop
         style="stop-color:#a04020;stop-opacity:1"
         offset="0"
         id="stop5337" />
      <stop
         style="stop-color:#a00000;stop-opacity:1"
         offset="1"
         id="stop5339" />
    </linearGradient>
    <linearGradient
       id="linearGradient5082">
      <stop
         style="stop-color:#804000;stop-opacity:1"
         offset="0"
         id="stop5078" />
      <stop
         style="stop-color:#800000;stop-opacity:1"
         offset="1"
         id="stop5080" />
    </linearGradient>
    <linearGradient
       xlink:href="#linearGradient5082"
       id="linearGradient5084"
       x1="100"
       y1="200"
       x2="100"
       y2="0"
       gradientUnits="userSpaceOnUse" />
    <linearGradient
       xlink:href="#linearGradient5341"
       id="linearGradient5343"
       x1="100"
       y1="200"
       x2="100"
       y2="0"
       gradientUnits="userSpaceOnUse" />
    <linearGradient
       xlink:href="#linearGradient5406"
       id="linearGradient5408"
       x1="100"
       y1="200"
       x2="100"
       y2="0"
       gradientUnits="userSpaceOnUse" />
    <linearGradient
       xlink:href="#linearGradient5566"
       id="linearGradient5568"
       x1="100"
       y1="200"
       x2="100"
       y2="0"
       gradientUnits="userSpaceOnUse" />
    <linearGradient
       xlink:href="#linearGradient5688"
       id="linearGradient5690"
       x1="100"
       y1="200"
       x2="100"
       y2="0"
       gradientUnits="userSpaceOnUse" />
  </defs>
  <g>
    <path
       style="fill:url(#linearGradient5084);fill-opacity:1;stroke:none;stroke-width:10;stroke-linecap:round;stroke-miterlimit:4;stroke-dasharray:none;stroke-opacity:1;paint-order:stroke fill markers"
       d="M 100.0001,12.500011 A 81.249998,81.249998 0 0 0 18.74976,93.749831 81.249998,81.249998 0 0 0 100.0001,175.00017 81.249998,81.249998 0 0 0 181.24992,93.749831 81.249998,81.249998 0 0 0 100.0001,12.500011 Z m 0,12.500012 A 68.749999,68.749999 0 0 1 168.7499,93.749831 68.749999,68.749999 0 0 1 100.0001,162.50016 68.749999,68.749999 0 0 1 31.249773,93.749831 68.749999,68.749999 0 0 1 100.0001,25.000023 Z" />
  </g>
  <g>
    <path
       style="fill:url(#linearGradient5408);fill-opacity:1;fill-rule:evenodd;stroke:none;stroke-width:10;stroke-linecap:round;stroke-linejoin:miter;stroke-miterlimit:4;stroke-dasharray:none;stroke-opacity:1;paint-order:stroke fill markers"
       d="M 0,132.5 H 200 L 100,67.499999 Z" />
  </g>
  <g>
    <path
       style="fill:url(#linearGradient5343);fill-opacity:1;fill-rule:evenodd;stroke:none;stroke-width:10;stroke-linecap:round;stroke-linejoin:miter;stroke-miterlimit:4;stroke-dasharray:none;stroke-opacity:1;paint-order:stroke fill markers"
       d="M 17.5,12.5 100,200 182.5,12.5 100,67.499999 Z" />
  </g>
  <g>
    <path
       style="fill:url(#linearGradient5568);fill-opacity:1;fill-rule:evenodd;stroke:none;stroke-width:10;stroke-linecap:round;stroke-linejoin:miter;stroke-miterlimit:4;stroke-dasharray:none;stroke-opacity:1;paint-order:stroke fill markers"
       d="m 72.5,-5e-7 c 0,0 -32.5,2.5 -32.500001,47.5000005 C 39.999998,83.100015 100,200 100,200 v 0 C 100,200 160,83.100015 160,47.5 160,2.4999995 127.5,-5e-7 127.5,-5e-7 127.5,-5e-7 145.12019,12.5 145.12019,42.499999 145.12019,75 107.5,112.5 100,112.5 92.5,112.5 54.923077,75 54.923077,42.499999 54.923077,12.5 72.5,-5e-7 72.5,-5e-7 Z" />
  </g>
  <g>
    <path
       style="fill:url(#linearGradient5690);fill-opacity:1;fill-rule:evenodd;stroke:none;stroke-width:10;stroke-linecap:round;stroke-linejoin:miter;stroke-miterlimit:4;stroke-dasharray:none;stroke-opacity:1;paint-order:stroke fill markers"
       d="m 100,132.5 c 0,0 -10,-27.11667 -10,-44.616667 0,-20.000002 10,-50.383335 10,-50.383335 0,0 10,30.383333 10,50.383335 C 110,105.38333 100,132.5 100,132.5 Z" />
  </g>
</svg>

<svg version="1.1" viewBox="0 0 200 200" xmlns="http://www.w3.org/2000/svg" xmlns:xlink="http://www.w3.org/1999/xlink">
	<defs>
		<linearGradient id="e" x1="100" x2="100" y1="200" gradientUnits="userSpaceOnUse">
			<stop stop-color="#804000" offset="0"/>
			<stop stop-color="#800000" offset="1"/>
		</linearGradient>
		<linearGradient id="d" x1="100" x2="100" y1="200" gradientUnits="userSpaceOnUse">
			<stop stop-color="#a04020" offset="0"/>
			<stop stop-color="#a00000" offset="1"/>
		</linearGradient>
		<linearGradient id="c" x1="100" x2="100" y1="200" gradientUnits="userSpaceOnUse">
			<stop stop-color="#c04000" offset="0"/>
			<stop stop-color="#c00000" offset="1"/>
		</linearGradient>
		<linearGradient id="b" x1="100" x2="100" y1="200" gradientUnits="userSpaceOnUse">
			<stop stop-color="#e04000" offset="0"/>
			<stop stop-color="#e00000" offset="1"/>
		</linearGradient>
		<linearGradient id="a" x1="100" x2="100" y1="200" gradientUnits="userSpaceOnUse">
			<stop stop-color="#ff4000" offset="0"/>
			<stop stop-color="#f00" offset="1"/>
		</linearGradient>
	</defs>
	<path d="m100 12.5a81.25 81.25 0 0 0-81.25 81.25 81.25 81.25 0 0 0 81.25 81.25 81.25 81.25 0 0 0 81.25-81.25 81.25 81.25 0 0 0-81.25-81.25zm0 12.5a68.75 68.75 0 0 1 68.75 68.75 68.75 68.75 0 0 1-68.75 68.75 68.75 68.75 0 0 1-68.75-68.75 68.75 68.75 0 0 1 68.75-68.75z" fill="url(#e)" style="paint-order:stroke fill markers"/>
	<path d="m0 132.5h200l-100-65z" fill="url(#c)" fill-rule="evenodd" style="paint-order:stroke fill markers"/>
	<path d="m17.5 12.5 82.5 187.5 82.5-187.5-82.5 55z" fill="url(#d)" fill-rule="evenodd" style="paint-order:stroke fill markers"/>
	<path d="m72.5-5e-7s-32.5 2.5-32.5 47.5c-1e-6 35.6 60 152.5 60 152.5s60-116.9 60-152.5c0-45-32.5-47.5-32.5-47.5s17.62 12.5 17.62 42.5c0 32.5-37.62 70-45.12 70s-45.077-37.5-45.077-70c0-30 17.577-42.5 17.577-42.5z" fill="url(#b)" fill-rule="evenodd" style="paint-order:stroke fill markers"/>
	<path d="m100 132.5s-10-27.117-10-44.617c0-20 10-50.383 10-50.383s10 30.383 10 50.383c0 17.5-10 44.617-10 44.617z" fill="url(#a)" fill-rule="evenodd" style="paint-order:stroke fill markers"/>
</svg>
